packages/icons/src/assets/raw/outlined/SVG/outlined-media-monitor.svg

<svg viewBox="0 0 24 24" xmlns="http://www.w3.org/2000/svg">
  <path d="M 17.69 4.516 L 6.48 4.516 C 5.356 4.488 4.429 5.391 4.43 6.516 L 4.43 15.006 C 4.43 16.11 5.325 17.006 6.43 17.006 L 9.75 17.006 C 9.467 17.963 8.624 18.646 7.63 18.726 L 7.5 18.726 C 7.44 18.726 7.44 18.786 7.38 18.786 C 7.31 18.846 7.31 18.846 7.31 18.916 C 7.31 18.986 7.31 18.976 7.25 19.036 L 7.25 19.106 C 7.25 19.166 7.25 19.166 7.31 19.236 C 7.318 19.304 7.372 19.357 7.44 19.366 L 7.57 19.486 L 16.57 19.486 C 16.638 19.486 16.694 19.434 16.7 19.366 C 16.77 19.296 16.77 19.296 16.77 19.236 C 16.77 19.176 16.77 19.106 16.83 19.106 C 16.841 19.036 16.819 18.966 16.77 18.916 C 16.761 18.848 16.708 18.794 16.64 18.786 C 16.57 18.726 16.57 18.726 16.51 18.726 L 16.32 18.726 C 15.362 18.574 14.562 17.916 14.23 17.006 L 17.5 17.006 C 18.624 17.034 19.55 16.13 19.55 15.006 L 19.55 6.546 C 19.699 5.587 19.039 4.689 18.08 4.546 C 17.951 4.52 17.82 4.51 17.69 4.516 Z M 14.49 18.796 L 9.75 18.796 C 10.235 18.33 10.582 17.738 10.75 17.086 L 13.51 17.086 C 13.659 17.745 14.008 18.342 14.51 18.796 Z M 18.85 15.176 C 18.803 15.742 18.328 16.178 17.76 16.176 L 6.48 16.176 C 5.893 16.229 5.387 15.765 5.39 15.176 Z M 18.85 6.546 L 18.85 14.226 L 5.39 14.226 L 5.39 6.546 C 5.39 5.916 5.9 5.406 6.53 5.406 L 17.76 5.406 C 18.361 5.451 18.831 5.943 18.85 6.546 Z"/>
</svg>

<svg xmlns="http://www.w3.org/2000/svg" viewBox="0 0 24 24">
  <path d="M17.69 4.51H6.48a2 2 0 00-2.05 2V15a2 2 0 002 2h3.32a2.41 2.41 0 01-2.12 1.72H7.5c-.06 0-.06.06-.12.06-.07.06-.07.06-.07.13s0 .06-.06.12v.07c0 .06 0 .06.06.13a.15.15 0 00.13.13l.13.12h9a.13.13 0 00.13-.12c.07-.07.07-.07.07-.13s0-.13.06-.13a.22.22 0 00-.06-.19.15.15 0 00-.13-.13c-.07-.06-.07-.06-.13-.06h-.19A2.67 2.67 0 0114.23 17h3.27a2 2 0 002.05-2V6.54a1.75 1.75 0 00-1.47-2 1.67 1.67 0 00-.39-.03zm-3.2 14.28H9.75a3.62 3.62 0 001-1.71h2.76a3.29 3.29 0 001 1.71zm4.36-3.62a1.09 1.09 0 01-1.09 1H6.48a1 1 0 01-1.09-1zm0-8.63v7.68H5.39V6.54A1.14 1.14 0 016.53 5.4h11.23a1.18 1.18 0 011.09 1.14z"/>
</svg>
